X: 1
T: Tourner à Trois
T: Turning by Threes
C: Paul Machlis (1998)
R: waltz
M: 3/4
L: 1/8
K: Bm
"Bm" de f3 F |"Em" GA B4 |"A" cde3 E |"D" G2 F4 |"Bm" B,D FB df |"Em" ef g4 |"C#m" fgf3 F |"F#" fg fe dc |
"Bm" de f3 F |"Em" GA B4 |"A" cde3 E |"D" G2 F4 |"Bm" B,D FB df |"Em" ef g4 |"F#" f3e dc |"Bm" B6 ||
"A" cde3 g |"D" g2 f4 |"Em" e3 g fe |"Bm" e2 d4 |"C" =cd ef gc |"Bm" Bd f4 |"C#m" fgf3 F |"F#" fg f4 |
"Bm" bf dB FD |"Em" GAB4 |"A" cde3 E |"D" G2 F4 |"C" =cd ef gc |"Bm" Bd f3 g |"F#" f3 e dc |"Bm" B6 ||

